X: 2
T: Patsy Campbell
R: reel
M: 4/4
L: 1/8
K: Dmix
|:dcAG FGAB|c2AB cded|dcAG FGA2|fde^c d2de|
dcAG FGAB|cBAB cdec|dcAG FGA2|fde^c d3e:|
|:fdd^c dfaf|ecc2 efge|fdd^c dfaf|ed^cB A2Ae|
faaf a2af|gbaf g2fg|a2ag fde^c|1 d2de f2eg:|2 d2de f2e2||

